lib/svgs/link.svg

<svg xmlns="http://www.w3.org/2000/svg" viewBox="0 0 20 20">
    <path fill="#000" fill-rule="evenodd" d="M9.84663316,10.1534919 C10.6573423,10.964201 10.6573423,12.1865163 9.84663316,12.9977256 L8.44627193,14.3975867 C7.63556281,15.2077956 6.41324751,15.2082958 5.60253838,14.3975867 C4.79232938,13.5868775 4.79232938,12.3650624 5.59553657,11.561355 L6.8458591,10.3610454 L6.15318042,9.63935925 L4.89535596,10.8471708 C3.70154801,12.0404786 3.70154801,13.9114613 4.89535596,15.1047691 C5.49200987,15.7019231 6.25820751,16 7.02440516,16 C7.7906028,16 8.55680044,15.7019231 9.15345435,15.1047691 L10.5538156,13.704908 C11.7476235,12.5105999 11.7476235,10.6406175 10.5538156,9.44630945 L9.84663316,10.1534919 L9.84663316,10.1534919 L9.84663316,10.1534919 Z M14.1048316,5.89554352 C12.9110236,4.70173557 11.0405411,4.70123544 9.84673319,5.89554352 L8.44637196,7.29590475 C7.25256401,8.48971269 7.25256401,10.3601952 8.44637196,11.5540031 L9.15355438,10.8468207 C8.34284525,10.0361116 8.34284525,8.81379629 9.15355438,8.00308717 L10.5539156,6.60272594 C11.3641246,5.79151668 12.5864399,5.79151668 13.3976492,6.60272594 C14.2083583,7.41343506 14.2083583,8.63575036 13.4051511,9.43895756 L12.1548286,10.6392672 L12.8470071,11.3614535 L14.1048316,10.1536419 C15.2986395,8.95983396 15.2986395,7.08935147 14.1048316,5.89554352 L14.1048316,5.89554352 L14.1048316,5.89554352 Z"/>
</svg>

<svg xmlns="http://www.w3.org/2000/svg" viewBox="0 0 20 20">
    <path fill="#000" fill-rule="evenodd" d="M9.847 10.153c.81.811.81 2.034 0 2.845l-1.4 1.4c-.811.81-2.034.81-2.844 0a1.964 1.964 0 0 1-.007-2.837l1.25-1.2-.693-.722-1.258 1.208a2.978 2.978 0 0 0 0 4.258 3 3 0 0 0 2.13.895 3 3 0 0 0 2.128-.895l1.4-1.4a2.98 2.98 0 0 0 0-4.259l-.706.707m4.258-4.257a2.979 2.979 0 0 0-4.258 0l-1.4 1.4a2.979 2.979 0 0 0 0 4.258l.707-.707a1.967 1.967 0 0 1 0-2.844l1.4-1.4a1.966 1.966 0 0 1 2.844 0c.81.81.81 2.033.007 2.836l-1.25 1.2.692.722 1.258-1.207a2.979 2.979 0 0 0 0-4.258"/>
</svg>
